X: 161
T: NN
L: 1/16
M: 2/4
K: C
d2> e2 d2 c2 [I:setbarnb 1]| 
c2A6 | 
B2> B2 G2 E G | 
A8 | 
A2 d d c2 A A | 
G2E6 | 
G E G A2< E2 D | 
C2 A CD4 |]

@@@ Tune index: 8829
